X:1
T:Watkins Ale
M:6/8
L:1/8
K:D
 A| d2 c d2 A| B2 A B2 F| G2 F G2 D| F E2 D2 A| d2 c d2 A| B2 A B2 F|\
 G2 F G2 D| F E2 D2 z| DFD F3/2 G/2 A| EGE G3/2 A/2 B| GBG B3/2 c/2 d|\
 eed c3| DFD F3/2 G/2 A| EGE G3/2 A/2 B| GBG B3/2 c/2 d| eed c3| A d2 c3|\
 F B2 A3| D G2 F3/2- E/2 D| E2 C D3| A d2 c2 c| F B2 A3| D G2 F3/2- E/2 D|\
 E2 C D3|

